!!!OTL: DER WINTER HAT MIT KALTER HAND
!!!ARE: Europa, Mitteleuropa, Deutschland
!!!SCT: F0166
!!!YEM: Copyright 1995, estate of Helmut Schaffrath.
**kern
*ICvox
*Ivox
*M6/8
*k[f#]
*G:
{8dd
=1
8dd
8ee
8cc
8b
8cc
8dd
=2
8dd
8ee
8cc
4b}
{8b
=3
4a
8a
8a
8dd
8cc
=4
4.cc
4b}
{8dd
=5
8dd
8ee
8cc
8b
8gg
8ff#
=6
8ff#
8ee
8dd
8dd
8cc#}
{8b
=7
8b
8a
8dd
8ee
8dd
8cc#
=8
4.cc#
4dd}
{8dd
=9
8dd
8ee
8b
8b
8cc
8cc
=10
8cc
8dd
8a
8a
8b}
{8gg
=11
4gg
8dd
8dd
8b
8g
=12
8d
8a
8f#
4g}
==
!!!AGN: Jahreszeiten - Lied, Winter
!!!ONB: ESAC (Essen Associative Code) Database: FINK
!!!AMT: compound duple
!!!AIN: vox
!!!EED: Helmut Schaffrath
!!!EEV: 1.0
*-
